!!!OTL: Graf und Nonne (Die Nonne) Es welken alle Blaetter,
!!!ARE: Europa, Mitteleuropa, Deutschland (BRD), Franken
!!!YOR: 8, S. 290
!!    1945 aufgezeichnet
!!!SCT: Q0155I.
!!!YEM: Copyright 1995, estate of Helmut Schaffrath.
**kern
*ICvox
*Ivox
*M4/4
*k[f#]
*G:
{4d
=1
4g
4d
4B
4d
=2
4g
4b
4b}
{4dd
=3
4.cc
8b
4a
8a
8cc
=4
2b
4r}
{8dd
8cc
=5
4b
4b
4b
8dd
8b
=6
4cc
4dd
4cc}
{8cc
8b
=7
4a
4a
4a
8cc
8a
=8
4b
4cc
4b}
{8dd
8cc
=9
4b
4b
4a
8a
8cc
=10
2b
4r}
==
!!!AGN: Ballade, Standesunterschied, vergebliche Werbung, Liebe, Klage
!! Letzten Takt der dritten Zeile rhythmisch korrigiert. Schlusspause
!!    ergaenzt.
!!!ONB: ESAC (Essen Associative Code) Database: BALLADE
!!!AMT: simple quadruple
!!!AIN: vox
!!!EED: Helmut Schaffrath
!!!EEV: 1.0
*-
